X:1
T:Doxy
T:Doxy
T:Sonny Rollins
C:Sonny Rollins
Z:All Rights Reserved
L:1/8
M:4/4
K:Bb
V:1 treble 
V:1
 F |"Bb7" BdBG"Ab7" B z z G |"G7" B=EB_d z G2 F |"C7" =EGB_d"F7" (3c=dc GB |"Bb7" z4"F+7" z2 z F || %5
"Bb7" BdBG"Ab7" B z z =E |"G7" B=EB_d z G2 F |"C7" =EGB_d (3c=dc GA |"F7" z8 || %9
"Fm7" g2 z f z2 _d2- |"Bb7" d3 G- G c2 G |"Eb7" _d2 dd G2 c2 |"Edim7" z4 z2 z F || %13
"Bb7" BdBF"Ab7" B z z =E |"G7" B=E B/>^c/ d z G2 F |"C7" =EGB_d"F7" (3c=dc GB |"Bb7" z8 |] %17

